X: 443
T:Unknown title N158a
S: from James O'Rourke of Carreg Lafar
M:6/8
L:1/8
R:Jig
N:Posted to the woodenflute mailing list October 2001
Z:Kevin Gow
K:G
GFG AFD | cBc dBG | GFG AGE | GED DEF | GFG AFD | cBc dBG|!
GFG EAG | FEF G2B :|ded dBG | efe edB | ded dBA | BAG EFG |!
GFG AFD | cBc dBG | GFG EAG | FEF G2 B |ded DBG | efe edB|!
dfd dBA | BAG FGE |DEF GFG | AGA cBc | dBG GFG | EAF G2z||
<end>
<start>
